X:600
T: ACH SCHOENSTER SCHATZ VERZEIH ES MIR
N: E0559
O: Europa, Mitteleuropa, Deutschland, Frankfurt a.M.
R: Liebes - Lied
M: 6/8
L: 1/8
K: Eb
B | B2GE2G | B2GE2
E | A2cedc | c3B2
G | A2ccBA | G2BBA
G | F2BBAF | F3E2
G | A2ccBA | G2BBA
G | F2BBAF | F3E2

@@@ Tune index: 4250
